Newaita-dark/actions/22/transform-move.svg

<svg height="22" viewBox="0 0 22 22" width="22" xmlns="http://www.w3.org/2000/svg"><g fill="#e0e0e0"><path d="m7.730469 15.625h6.367187l-3.183594 4.546875zm0 0"/><path d="m7.730469 6.550781h6.367187l-3.183594-4.546875zm0 0"/><path d="m6.378906 7.902344v6.367187l-4.546875-3.183593zm0 0"/><path d="m15.453125 7.902344v6.367187l4.546875-3.183593zm0 0"/><path d="m10.914062 8.359375c1.507813 0 2.730469 1.21875 2.730469 2.726563 0 1.507812-1.222656 2.730468-2.730469 2.730468-1.507812 0-2.726562-1.222656-2.726562-2.730468 0-1.507813 1.21875-2.726563 2.726562-2.726563zm0 0"/></g></svg>

<svg xmlns="http://www.w3.org/2000/svg" xmlns:xlink="http://www.w3.org/1999/xlink" width="22px" height="22px" viewBox="0 0 22 22" version="1.1">
<g id="surface1">
     <defs>
  <style id="current-color-scheme" type="text/css">
   .ColorScheme-Text { color:#eeeeee; } .ColorScheme-Highlight { color:#424242; }
  </style>
 </defs>
<path style="fill:currentColor" class="ColorScheme-Text" d="M 7.730469 15.625 L 14.097656 15.625 L 10.914062 20.171875 Z M 7.730469 15.625 "/>
     <defs>
  <style id="current-color-scheme" type="text/css">
   .ColorScheme-Text { color:#eeeeee; } .ColorScheme-Highlight { color:#424242; }
  </style>
 </defs>
<path style="fill:currentColor" class="ColorScheme-Text" d="M 7.730469 6.550781 L 14.097656 6.550781 L 10.914062 2.003906 Z M 7.730469 6.550781 "/>
     <defs>
  <style id="current-color-scheme" type="text/css">
   .ColorScheme-Text { color:#eeeeee; } .ColorScheme-Highlight { color:#424242; }
  </style>
 </defs>
<path style="fill:currentColor" class="ColorScheme-Text" d="M 6.378906 7.902344 L 6.378906 14.269531 L 1.832031 11.085938 Z M 6.378906 7.902344 "/>
     <defs>
  <style id="current-color-scheme" type="text/css">
   .ColorScheme-Text { color:#eeeeee; } .ColorScheme-Highlight { color:#424242; }
  </style>
 </defs>
<path style="fill:currentColor" class="ColorScheme-Text" d="M 15.453125 7.902344 L 15.453125 14.269531 L 20 11.085938 Z M 15.453125 7.902344 "/>
     <defs>
  <style id="current-color-scheme" type="text/css">
   .ColorScheme-Text { color:#eeeeee; } .ColorScheme-Highlight { color:#424242; }
  </style>
 </defs>
<path style="fill:currentColor" class="ColorScheme-Text" d="M 10.914062 8.359375 C 12.421875 8.359375 13.644531 9.578125 13.644531 11.085938 C 13.644531 12.59375 12.421875 13.816406 10.914062 13.816406 C 9.40625 13.816406 8.1875 12.59375 8.1875 11.085938 C 8.1875 9.578125 9.40625 8.359375 10.914062 8.359375 Z M 10.914062 8.359375 "/>
</g>
</svg>
